!!!OTL: There Was A Pig Went Out to Dig
!! From: "Folk Songs of the Southern Appalachians;
!! As Sung by Jean Ritchie"  2nd Edition.
!! University of Kentucky Press, 1997.
**kern	**silbe
*clefG2	*
*k[f#]	*
*e:	*
*M6/8	*
{8B	There
=1	=
4e	was
8f#	a
4g	pig
8a	went
=2	=
4b	out
8ee	to
4.e}	dig.
=3	=
{8e	Chris'-
8f#	-a-
8g	-mas
4.f#}	Day,
=4	=
{8e	Chris'-
8f#	-a-
8g	-mas
4f#}	Day,
{8B	There
=5	=
4e	was
8f#	a
4g	pig
8a	went
=6	=
4b	out
8ee	to
4.e}	dig,
=7	=
{8e	Chris'-
8f#	-a-
8g	-mas
8f#	Day
8e	in
8d	the
=8	=
4.e	morn-
4b}	-ing.
==	==
*-	*-
